Icons/org_evilsoft_pathfinder_reference.svg

<svg viewBox="0 0 48 48"><defs><linearGradient id="linearGradient3764" x1="1" x2="47" gradientUnits="userSpaceOnUse" gradientTransform="translate(-48.000001,0.00221467)"><stop stop-color="#ebce95" stop-opacity="1"/><stop offset="1" stop-color="#eed6a6" stop-opacity="1"/></linearGradient><clipPath id="clipPath-308313254"><g transform="translate(0,-1004.3622)"><rect rx="4" y="1005.36" x="1" height="46" width="46" fill="#1890d0"/></g></clipPath><clipPath id="clipPath-336136606"><g transform="translate(0,-1004.3622)"><rect rx="4" y="1005.36" x="1" height="46" width="46" fill="#1890d0"/></g></clipPath></defs><g><path d="m 1 43 l 0 0.25 c 0 2.216 1.784 4 4 4 l 38 0 c 2.216 0 4 -1.784 4 -4 l 0 -0.25 c 0 2.216 -1.784 4 -4 4 l -38 0 c -2.216 0 -4 -1.784 -4 -4 z m 0 0.5 l 0 0.5 c 0 2.216 1.784 4 4 4 l 38 0 c 2.216 0 4 -1.784 4 -4 l 0 -0.5 c 0 2.216 -1.784 4 -4 4 l -38 0 c -2.216 0 -4 -1.784 -4 -4 z" opacity="0.02"/><path d="m 1 43.25 l 0 0.25 c 0 2.216 1.784 4 4 4 l 38 0 c 2.216 0 4 -1.784 4 -4 l 0 -0.25 c 0 2.216 -1.784 4 -4 4 l -38 0 c -2.216 0 -4 -1.784 -4 -4 z" opacity="0.05"/><path d="m 1 43 l 0 0.25 c 0 2.216 1.784 4 4 4 l 38 0 c 2.216 0 4 -1.784 4 -4 l 0 -0.25 c 0 2.216 -1.784 4 -4 4 l -38 0 c -2.216 0 -4 -1.784 -4 -4 z" opacity="0.1"/></g><g><rect width="46" height="46" x="-47" y="1" rx="4" transform="matrix(0,-1,1,0,0,0)" fill="url(#linearGradient3764)" fill-opacity="1"/></g><g><g clip-path="url(#clipPath-308313254)"><g opacity="0.1"><!-- color: #eed6a6 --><g><path d="m 19 14 l 5 -5 l 5 5 l -4 21 l -2 0 m -4 -21" fill="#000"/><path d="m 23 35 l -1 2 l 2 2 l 2 -2 l -1 -2 l 0 -1 l -2 0 m 0 1" fill="#000"/><path d="m 23 28 l -3 -3 l -3 3 l 3 3 m 3 -3" fill="#000"/><path d="m 31 28 l -3 -3 l -3 3 l 3 3 m 3 -3" fill="#000"/></g></g></g></g><g><g clip-path="url(#clipPath-336136606)"><g transform="translate(0,-1)"><!-- color: #eed6a6 --><g><path d="m 19 14 l 5 -5 l 5 5 l -4 21 l -2 0 m -4 -21" fill="#6f4c43"/><path d="m 23 35 l -1 2 l 2 2 l 2 -2 l -1 -2 l 0 -1 l -2 0 m 0 1" fill="#6f4c43"/><path d="m 23 28 l -3 -3 l -3 3 l 3 3 m 3 -3" fill="#6f4c43"/><path d="m 31 28 l -3 -3 l -3 3 l 3 3 m 3 -3" fill="#6f4c43"/></g></g></g></g><g><g transform="translate(0,-1004.3622)"><path d="m 1 1043.36 0 4 c 0 2.216 1.784 4 4 4 l 38 0 c 2.216 0 4 -1.784 4 -4 l 0 -4 c 0 2.216 -1.784 4 -4 4 l -38 0 c -2.216 0 -4 -1.784 -4 -4 z" opacity="0.1"/></g></g></svg>

<svg viewBox="0 0 48 48" xmlns:xlink="http://www.w3.org/1999/xlink">
 <defs>
  <linearGradient id="0">
   <stop stop-opacity="0"/>
   <stop offset="1"/>
  </linearGradient>
  <linearGradient xlink:href="#0" id="1" gradientUnits="userSpaceOnUse" gradientTransform="translate(4e-7,-48)" y1="47" x2="0" y2="1"/>
  <clipPath id="2">
   <g transform="translate(0,-1004.3622)">
    <rect rx="4" y="1005.36" x="1" height="46" width="46" fill="#1890d0"/>
   </g>
  </clipPath>
  <clipPath id="3">
   <g transform="translate(0,-1004.3622)">
    <rect rx="4" y="1005.36" x="1" height="46" width="46" fill="#1890d0"/>
   </g>
  </clipPath>
 </defs>
 <g>
  <g transform="translate(0,-1004.3622)">
   <path d="m 5,1006.3622 c -2.216,0 -4,1.784 -4,4 l 0,37.25 c 0,2.216 1.784,4 4,4 l 38,0 c 2.216,0 4,-1.784 4,-4 l 0,-37.25 c 0,-2.216 -1.784,-4 -4,-4 l -38,0 z m -4,41.5 0,0.5 c 0,2.216 1.784,4 4,4 l 38,0 c 2.216,0 4,-1.784 4,-4 l 0,-0.5 c 0,2.216 -1.784,4 -4,4 l -38,0 c -2.216,0 -4,-1.784 -4,-4 z" opacity="0.02"/>
   <path d="m 1,1047.6122 0,0.25 c 0,2.216 1.784,4 4,4 l 38,0 c 2.216,0 4,-1.784 4,-4 l 0,-0.25 c 0,2.216 -1.784,4 -4,4 l -38,0 c -2.216,0 -4,-1.784 -4,-4 z" opacity="0.05"/>
   <rect width="46" height="46" x="1" y="1005.61" rx="4" opacity="0.1"/>
  </g>
 </g>
 <g>
  <g transform="translate(0,-1004.3622)">
   <rect rx="4" y="1005.36" x="1" height="46" width="46" fill="#eed6a6"/>
  </g>
 </g>
 <g>
  <rect transform="scale(1,-1)" width="46" height="46" x="1" y="-46.998" rx="4" opacity="0.1" fill="url(#1)"/>
 </g>
 <g>
  <g clip-path="url(#2)">
   <g opacity="0.1">
    <g>
     <path d="M 19 14 L 24 9 L 29 14 L 25 35 L 23 35 Z M 19 14 "/>
     <path d="M 23 35 L 22 37 L 24 39 L 26 37 L 25 35 L 25 34 L 23 34 Z M 23 35 "/>
     <path d="M 23 28 L 20 25 L 17 28 L 20 31 Z M 23 28 "/>
     <path d="M 31 28 L 28 25 L 25 28 L 28 31 Z M 31 28 "/>
    </g>
   </g>
  </g>
 </g>
 <g>
  <g clip-path="url(#3)">
   <g transform="translate(0,-1)">
    <g>
     <path d="M 19 14 L 24 9 L 29 14 L 25 35 L 23 35 Z M 19 14 " fill="#6f4c43"/>
     <path d="M 23 35 L 22 37 L 24 39 L 26 37 L 25 35 L 25 34 L 23 34 Z M 23 35 " fill="#6f4c43"/>
     <path d="M 23 28 L 20 25 L 17 28 L 20 31 Z M 23 28 " fill="#6f4c43"/>
     <path d="M 31 28 L 28 25 L 25 28 L 28 31 Z M 31 28 " fill="#6f4c43"/>
    </g>
   </g>
  </g>
 </g>
 <g>
  <g transform="translate(0,-1004.3622)">
   <path d="m 1,1043.3622 0,4 c 0,2.216 1.784,4 4,4 l 38,0 c 2.216,0 4,-1.784 4,-4 l 0,-4 c 0,2.216 -1.784,4 -4,4 l -38,0 c -2.216,0 -4,-1.784 -4,-4 z" opacity="0.1"/>
  </g>
 </g>
</svg>
